assets/images/icons/src/flag.svg

<?xml version="1.0" encoding="utf-8"?>
<!-- Generated by IcoMoon.io -->
<!DOCTYPE svg PUBLIC "-//W3C//DTD SVG 1.1//EN" "http://www.w3.org/Graphics/SVG/1.1/DTD/svg11.dtd">
<svg version="1.1" xmlns="http://www.w3.org/2000/svg" xmlns:xlink="http://www.w3.org/1999/xlink" width="14" height="14" viewBox="0 0 14 14">
<path fill="#444444" d="M2.5 2q0 0.563-0.5 0.859v9.891q0 0.102-0.074 0.176t-0.176 0.074h-0.5q-0.102 0-0.176-0.074t-0.074-0.176v-9.891q-0.5-0.297-0.5-0.859 0-0.414 0.293-0.707t0.707-0.293 0.707 0.293 0.293 0.707zM14 2.5v5.961q0 0.195-0.098 0.301t-0.309 0.215q-1.68 0.906-2.883 0.906-0.477 0-0.965-0.172t-0.848-0.375-0.902-0.375-1.113-0.172q-1.5 0-3.625 1.141-0.133 0.070-0.258 0.070-0.203 0-0.352-0.148t-0.148-0.352v-5.797q0-0.25 0.242-0.43 0.164-0.109 0.617-0.336 1.844-0.937 3.289-0.937 0.836 0 1.563 0.227t1.711 0.688q0.297 0.148 0.688 0.148 0.422 0 0.918-0.164t0.859-0.367 0.688-0.367 0.426-0.164q0.203 0 0.352 0.148t0.148 0.352z"></path>
</svg>

<svg xmlns="http://www.w3.org/2000/svg" width="14" height="14" viewBox="0 0 14 14"><path fill="#444" d="M2.5 2q0 .563-.5.859v9.891q0 .102-.074.176T1.75 13h-.5q-.102 0-.176-.074T1 12.75V2.859Q.5 2.562.5 2q0-.414.293-.707T1.5 1t.707.293T2.5 2zm11.5.5v5.961q0 .195-.098.301t-.309.215q-1.68.906-2.883.906-.477 0-.965-.172t-.848-.375-.902-.375-1.113-.172q-1.5 0-3.625 1.141-.133.07-.258.07-.203 0-.352-.148T2.499 9.5V3.703q0-.25.242-.43.164-.109.617-.336Q5.202 2 6.647 2q.836 0 1.563.227t1.711.688q.297.148.688.148.422 0 .918-.164t.859-.367.688-.367.426-.164q.203 0 .352.148t.148.352z"/></svg>
